X: 561
T: Dil Seni Sevmeyeni...
C: Civan Ağa
O: Turkey
F: http://compmusic.upf.edu/node/140
N: nihavent--sarki--semai--dil_seni--civan_aga
N: makam= nihavent
N: form= sarki
N: usul= semai = 3/4
M: 3/4
L: 1/16
K: C _B _e  
Q: 1/4=144
%%MIDI tuningsystem comma53
D4 G4 B4  | d12  | (3d2e2d2 (3c2d2c2 (3B2c2B2  | A12  | \
w:  ARANAĞME  |   |   |   | 
D4 ^F4 A4  | c12  | (3c2d2c2 (3B2c2B2 (3A2B2A2  | 
w:   |   |   | 
(3G2e2d2 (3c2B2A2 (3G2^F2E2  | D4 G4 B4  | d12  | \
w:   |   |   | 
(3d2e2d2 (3c2d2c2 (3B2c2B2  | 
w:   | 
A6B2 c2d2  | e6d2 ^c2e2  | d8 (3A2B2c2  | \
w:   |   |   | 
(3e2d2c2 (3B2A2G2 ^F3A  | G8 z4  | 
w:   |   | 
D4 G4 B4  | d12  | (3d2e2d2 (3c2d2c2 (3B2c2B2  | A12  | \
w:  ARANAĞME  |   |   |   | 
D4 ^F4 A4  | c12  | (3c2d2c2 (3B2c2B2 (3A2B2A2  | 
w:   |   |   | 
(3G2e2d2 (3c2B2A2 (3G2^F2E2  | D4 G4 B4  | d12  | \
w:   |   |   | 
(3d2e2d2 (3c2d2c2 (3B2c2B2  | 
w:   | 
A6B2 c2d2  | e6d2 ^c2e2  | d8 (3A2B2c2  | \
w:   |   |   | 
(3e2d2c2 (3B2A2G2 ^F3A  | G8 z4  | 
w:   |   | 
G8 d4  | d12  | d8 {e}d2{e}c2  | c8 {d}c2{d}B2  | \
w:  Dil  se  |  ni   |  sev  |   | 
B8 A4  | A4 G4 ^F4  | {G}G12  | G12  | G8 A4  | \
w:  me ye  |  ni   |  *  sev  |   |  me de   | 
B8 ^c4  | {d}d8 e4  | 
w:  lez  |  *  zet   | 
^f8 d4  | e8 d4  | ^c4 d4 {^f}e2{f}d2  | \
w:   |  mi   |  *  *  *  o  | 
{e}d12  | d8 z4  | d4 f4 f4  | f4 e4 d4  | \
w:  *  lur    |   |  Ol *  sa   |  da   | 
c4 g4 f4  | {g}e4 {f}d4 {e}c4  | 
w:  öy  |   | 
c4 c2d2 {e}c2B2  | A2B2 c4 c2B2  | B8 {c}B2{c}A2  | \
w:  le  *  *  *  mu  |  hab  |  bet  | 
{B}A12  | A8 A4  | G8 A4  | G8 {f}e2{f}d2  | 
w:   |  te  ha  |  kî  |  kat   | 
{e}d12  | B8 G4  | A8 ^F4  | G12  | z2d2 e2^f2 g4  | \
w:   |  mi   |  *  o  |  lur    |  SAZ  | 
^f8 g4  | g12  | a8 g2a2  | b8 a2g2  | .^f8 g4  | 
w:  Yek  ci  |  het   |  ol  |   |  maz  i  | 
^f4 e4 e2d2  | d8 {e}d2{e}^c2  | {d}^c12  | \
w:  se   |  dil  |   | 
d8 e4  | ^f8 g4  | a8 g2a2  | b8 a2g2  | ^f8 e2d2  | 
w:  de  mu  |  hab  |  bet   |   |  mi   | 
c4 a4 a2{b}g2  | g12  | z2d2 e2f2 g4  | \
w:  *  *  o  |  lur    |  SAZ  | 
f8 g4  | g2{a}f2 {a}g8  | f2g2 a2b2 a2g2  | 
w:  Al da  |  nıp   |  sev  | 
{a}g2{a}f2 g8  | f4 g4 a4  | f2g2 f2_3/4e2 e2d2  | d12  | \
w:   |  me *  ye  |  ni   |  can   | 
{a}g2{a}f2 {g}_3/4e2{f}d2 {_e}c4  | \
w:   | 
c8 a2b2  | 
w:  ve re  | 
(3a2a2g2 g2f2 .g4  | f2g2 a2b2 c'2d'2  | \
w:  rek   |  sev  | 
{e'}c'2{d'}b2 {c'}a2{b}g2 {a}f2_3/4e2  | \
w:   | 
d4 _2/4e4 g4  | 
w:  me  | 
f4 _3/4e4 e2d2  | d12  | d4 z8  | d4 f4 f4  | \
w:  *  *  me  |  li    |   |  Ol *  sa   | 
f4 e4 d4  | c4 g4 f4  | {g}e4 {f}d4 {e}c4  | \
w:  da   |  öy  |   | 
c4 c2d2 {e}c2B2  | 
w:  le  *  *  *  mu  | 
A2B2 c4 c2B2  | B8 {c}B2{c}A2  | {B}A12  | \
w:  hab  |  bet  |   | 
A8 A4  | G8 A4  | G8 {f}e2{f}d2  | {e}d12  | \
w:  te  ha  |  kî  |  kat   |   | 
B8 G4  | A8 ^F4  | 
w:  mi   |  *  o  | 
G12  | |


